!!!OTL: Shange,kaikou jujuzhen
!!!ARE: Asia, China,ÿHunan Lingxian
!! I, 528
!!!SCT: C2193
!!!YEM: Copyright 1995, estate of Helmut Schaffrath.
**kern
*ICvox
*Ivox
!! Mixed meters:  4/4; 3/4; 2/4
*M3/4
*k[f#]
*G:
{16b
8.b
16dd
8.ee
16b
8.b
8dd
16gg
16aa
=1
16gg
8.gg
16ee
8.b
2ee
=2
2gg
16ee
8dd
16ee
=3
*M2/4
2dd}
=4
*M4/4
{16b
8.b
16dd
8.ee
16b
8.b
8dd
16gg
16aa
=5
16gg
8.gg
16ee
8.b
2ee
=6
*M3/4
2gg
16ee
8dd
16ee
=7
2dd}
==
!!!AGN: Shange, Kejia shange
!!!ONB: ESAC (Essen Associative Code) Database: SENGANSU
!!!AMT: irregular
!!!AIN: vox
!!!EED: Helmut Schaffrath
!!!EEV: 1.0
*-
